!!!!SEGMENT: pl-kk--kk-i-487--006_anonim--po-upadku-czlowieka-grzesznego.krn
!!!cenid: 18xx:1361
!!!COM: Anonim
!!!COM-rism: pe30004985
!!!CDT:
!!!CNT:
!!!OTL: Po upadku człowieka grzesznego
!!!PDT:
!!!AGN: Sacred
!!!SMS-siglum: PL-Kk
!!!SMS-shelfmark: Kk.I.487
!!!NIFC-rismID: 1001141052
!!!URL-scan: http://repozytorium.nifc.pl/skany/pl-kk-nut--i-487
!!!ONB-nifc:
!!!SMS-variant:
!!!SMS-altvar:
**kern	**text	**text	**kern	**text	**text	**kern	**text	**text	**kern
*part4	*part4	*part4	*part3	*part3	*part3	*part2	*part2	*part2	*part1
*staff4	*staff4	*staff4	*staff3	*staff3	*staff3	*staff2	*staff2	*staff2	*staff1
*I"Bas	*	*	*I"Tenor	*	*	*I"Alt.	*	*	*I"Sopran
*I'B	*	*	*I'T	*	*	*I'A	*	*	*I'S
*clefF4	*	*	*clefC4	*	*	*clefC3	*	*	*clefC1
*k[b-e-a-]	*	*	*k[b-e-a-]	*	*	*k[b-e-a-]	*	*	*k[b-e-a-]
*M4/4	*	*	*M4/4	*	*	*M4/4	*	*	*M4/4
*met(c)	*	*	*met(c)	*	*	*met(c)	*	*	*met(c)
*>[A,B,B]	*	*	*>[A,B,B]	*	*	*>[A,B,B]	*	*	*
*>A	*	*	*>A	*	*	*>A	*	*	*
!	!	!	!	!	!	!	!	!	!LO:TX:t=P:problem:brak partii sopranu w tej części
4E-\	Po	Idź	4G/	Po	Idź	4e-\	Po	Idź	4ryy
=1	=1	=1	=1	=1	=1	=1	=1	=1	=1
4E-\	u-	do	4G/	u-	do	4e-\	u-	do	1ryy
4E-\	-pad-	Pan-	4B-\	-pad-	Pan-	4e-\	-pad-	Pan-	.
*2\right	*	*	*2\right	*	*	*	*	*	*
2A-\	-ku	-ny	2c\	-ku	-ny	(4a-\	-ku	-ny	.
.	.	.	.	.	.	4e-\)	.	.	.
=2	=2	=2	=2	=2	=2	=2	=2	=2	=2
4G\	czło-	i-	4e-\	czło-	i-	4e-\	czło-	i-	1ryy
4G\	-wie-	-mię	4B-\	-wie-	-mię	4.e-\	-wie-	-mię	.
4F\	-ka	jej	4B-\	-ka	jej	.	.	.	.
.	.	.	.	.	.	8d\	-ka	jej	.
4E-\	grze-	Ma-	4B-\	grze-	Ma-	4e-\	grze-	Ma-	.
=3	=3	=3	=3	=3	=3	=3	=3	=3	=3
*	*	*	*	*	*	*2\right	*	*	*
2BB-/	-szne-	-ry-	2A-\	-szne-	-ry-	2d\	-szne-	-ry-	1ryy
4E-\	-go	-ja	4G/	-go	-ja	4e-\	-go	-ja	.
4r	.	.	4r	.	.	4r	.	.	.
=4	=4	=4	=4	=4	=4	=4	=4	=4	=4
4E-\	u-	spraw	4B-\	u-	spraw	4g\	u-	spraw	1ryy
4.E-\	-ża-	po-	4B-\	-ża-	po-	4e-\	-ża-	po-	.
!	!	!	!LO:LB:g=original	!	!	!LO:LB:g=original	!	!	!
.	.	.	4c\	-lił	-sel-	4e-\	-lił	-sel-	.
8A-\	-lił	-sel-	.	.	.	.	.	.	.
4G\	się	-stwo	4d-X\	się	-stwo	8f-X\L	się	-stwo	.
.	.	.	.	.	.	8e-\J	.	.	.
!LO:LB:g=original	!	!	!	!	!	!	!	!	!
=5	=5	=5	=5	=5	=5	=5	=5	=5	=5
4.A-\	Pan	zdro-	(8c\	Pan	zdro-	4.e-\	Pan	zdro-	1ryy
.	.	.	4e-\)	.	.	.	.	.	.
8E-\	stwo-	-waś	8e-\	stwo-	-waś	8g\	stwo-	-waś	.
4C/	-rze-	ła-	4e-\	-rze-	ła-	4g\	-rze-	ła-	.
4F\	-nia	-ski	4B-\	-nia	-ski	4f\	-nia	-ski	.
=6	=6	=6	=6	=6	=6	=6	=6	=6	=6
4F\	swe-	peł-	4An\	swe-	peł-	8f\L	swe-	peł-	1ryy
.	.	.	.	.	.	8e-\J	.	.	.
8BB-/	-go	-na	8B-\	-go	-na	8d\	-go	-na	.
8r	.	.	8r	.	.	8r	.	.	.
4r	.	.	4r	.	.	4r	.	.	.
=!|:	=!|:	=!|:	=!|:	=!|:	=!|:	=!|:	=!|:	=!|:	=!|:
*>B	*	*	*>B	*	*	*>B	*	*	*
4E-\	ze-	Pan	4G/	ze-	Pan	4e-\	ze-	Pan	.
=7	=7	=7	=7	=7	=7	=7	=7	=7	=7
4E-\	-słał	jest	4B-\	-słał	jest	4g\	-słał	jest	1ryy
4E-\	na	z to-	4G/	na	z to-	4e-\	na	z to-	.
2A-\	swiat	-bą	2A-\	swiat	-bą	2e-\	swiat	-bą	.
!	!	!	!LO:LB:g=original	!	!	!LO:LB:g=original	!	!	!
=8	=8	=8	=8	=8	=8	=8	=8	=8	=8
4G\	Ar-	nie	4B-\	Ar-	nie	4e-\	ar-	nie	1ryy
4C/	-cha-	bądź	4c\	-cha-	bądź	4.e-\	-cha-	bądź	.
4F\	-nio-	że	4c\	-nio-	że	.	.	.	.
.	.	.	.	.	.	8f\	-nio-	że	.
4BB-/	-ła	tro-	4B-\	-ła	tro-	4e-\	-ła	tro-	.
!LO:LB:g=original	!	!	!	!	!	!	!	!	!
=9	=9	=9	=9	=9	=9	=9	=9	=9	=9
4BB-/	cne-	-skli-	4A-\	cne-	-skli-	4d\	cne-	-skli-	2.ryy
8E-\	-go	-wa	8G/	-go	-wa	8e-\	-go	-wa	.
8r	.	.	8r	.	.	8r	.	.	.
4r	.	.	4r	.	.	4r	.	.	.
==:|!	==:|!	==:|!	==:|!	==:|!	==:|!	==:|!	==:|!	==:|!	==:|!
*-	*-	*-	*-	*-	*-	*-	*-	*-	*-
!!!system-decoration: [(s1,s2,s3,s4)]
!!!ENC: Marta Lawrence
!!!END: 2021-01-18
!!!ENC: Tomasz Grochalski
!!!END: 2021-01-10
